!!!!SEGMENT: pl-cz--iii-564--001-004_raszek-waclaw--missa-pastoralis-d-et-incarnatus.krn
!!!cenid: 18xx:988
!!!COM: Raszek, Wacław
!!!COM-rismID: pe30020314
!!!CDT: <1848->1848
!!!CNT:
!!!OPR: Missa Pastoralis D
!!!OTL: Et incarnatus
!!!OMV: 004
!!!PDT:
!!!AGN: Sacred; Mass
!!!SMS-siglum: PL-CZ
!!!SMS-shelfmark: III-564
!!!SMS-shelfwork: 001-004 M
!!!SMS-variant:
!!!SMS-altvar:
!!!NIFC-rismSourceID: 300001047
!!!NIFC-rismChildID: 300001047
!!!NIFC-islandoraID: pl-cz:39183
!!!URL-pdf-islandora: https://repozytorium.nifc.pl/islandora/object/pl-cz%3A39183/datastream/PDF/view
!!!URL-scan:
!!!ONB-nifc: UWAGA: części Mszy: Kyrie, Gloria, Credo, Et incarnatus, Et resurrexit, Sanctus, Benedictus, Agnus Dei, Dona nobis
!!!AIN: 1 alto 1 bass 4 empty 2 flt 1 organ 2 violn 1 vox
!!!key:
**kern	**kern	**dynam	**kern	**dynam	**kern	**kern	**text	**kern	**text	**kern	**kern	**kern	**kern	**kern	**kern
*part12	*part11	*part11	*part10	*part10	*part9	*part8	*part8	*part7	*part7	*part6	*part5	*part4	*part3	*part2	*part1
*staff12	*staff11	*	*staff10	*	*staff9	*staff8	*staff8	*staff7	*staff7	*staff6	*staff5	*staff4	*staff3	*staff2	*staff1
*Iorgan	*Ivioln	*	*Ivioln	*	*Ibass	*Ialto	*	*Ivox	*	*Iempty	*Iempty	*Iempty	*Iempty	*Iflt	*Iflt
*I"Organo.	*I"Violino 2do	*	*I"Violino Primo.	*	*I"Basso	*I"Alto	*	*I"Canto	*	*I"Cornu 2do	*I"Cornu 1mo.	*I"Clarinetto vel Oboe 2do	*I"Clarinetto vel Oboe 1mo	*I"Flauto 2do	*I"Flauto 1mo
*I'Org.	*I'Vn II	*	*I'Vn I	*	*I'B.	*I'A.	*	*I'C.	*	*I'Tr-ba in B♭	*I'C. I	*I'Ob. II	*I'Ob. I	*I'Fl. II	*I'Fl. I
*clefF4	*clefG2	*	*clefG2	*	*clefF4	*clefC3	*	*clefC1	*	*clefG2	*clefG2	*clefG2	*clefG2	*clefG2	*clefG2
*	*	*	*	*	*	*	*	*	*	*ITrd-1c-2	*ITrd-1c-2	*	*	*	*
*k[f#]	*k[f#]	*	*k[f#]	*	*k[f#]	*k[f#]	*	*k[f#]	*	*k[f#]	*k[f#]	*k[f#]	*k[f#]	*k[f#]	*k[f#]
*G:	*G:	*	*G:	*	*G:	*G:	*	*G:	*	*G:	*G:	*G:	*G:	*G:	*G:
*M3/4	*M3/4	*	*M3/4	*	*M3/4	*M3/4	*	*M3/4	*	*M3/4	*M3/4	*M3/4	*M3/4	*M3/4	*M3/4
=1	=1	=1	=1	=1	=1	=1	=1	=1	=1	=1	=1	=1	=1	=1	=1
*2\right	*2\right	*	*2\right	*	*	*2\right	*	*2\right	*	*	*	*	*	*2\right	*2\right
!	!	!	!	!	!	!LO:TX:a:Bi:t=Solo	!	!	!	!	!	!	!	!LO:TX:a:Bi:t=Solo	!LO:TX:a:Bi:t=Solo
!	!LO:TX:a:Bi:t=ada&colon;	!	!LO:TX:a:Bi:t=and&colon;	!	!LO:TX:a:Bi:t=Tacet	!LO:TX:a:Bi:t=ad&colon;	!	!LO:TX:a:Bi:t=ad&colon;	!	!LO:TX:a:Bi:t=Tacet	!LO:TX:a:Bi:t=Tacet	!LO:TX:a:Bi:t=Tacet	!LO:TX:a:Bi:t=Tacet	!LO:TX:a:Bi:t=ad&colon;	!LO:TX:a:Bi:t=ad&colon;
!	!	!	!	!LO:DY:Bi:a:t=%s.	!	!	!	!	!	!	!	!	!	!	!
4GG/	8b/L	.	8dd\L	p	2.ryy	8b\L	Et	8dd\L	Et	2.ryy	2.ryy	2.ryy	2.ryy	8bb\L	8ddd\L
!	!	!LO:DY:Bi:a:t=%s.	!	!	!	!	!	!	!	!	!	!	!	!	!
.	8cc/	pp	8ee\	.	.	8cc\J	.	8ee\J	.	.	.	.	.	8ccc\	8eee\
4BB/	8b/	.	8dd\	.	.	8b\L	in	8dd\L	in	.	.	.	.	8bb\	8ddd\
.	8g/	.	8b\	.	.	8g\J	.	8b\J	.	.	.	.	.	8gg\	8bb\
4D\	8a/	.	8ccn\	.	.	8a\L	car-	8ccn\L	car-	.	.	.	.	8aa\	8cccn\
.	8f#/J	.	8a\J	.	.	8f#\J	.	8a\J	.	.	.	.	.	8dd\J	8aa\J
=2	=2	=2	=2	=2	=2	=2	=2	=2	=2	=2	=2	=2	=2	=2	=2
4G\	8B/L	.	8g/L	.	2.ryy	4g\	-na-	8g\L	-na-	2.ryy	2.ryy	2.ryy	2.ryy	8b\L	8gg\L
.	8A/	.	8f#/	.	.	.	.	8f#\	.	.	.	.	.	8a\	8ff#\
4GG/	8B/	.	8g/	.	.	8g\L	.	8g\	.	.	.	.	.	8b\	8gg\
.	8d/	.	8a/	.	.	8f#\	.	8a\	.	.	.	.	.	8dd\	8aa\
4r	8g/	.	8b/	.	.	8g\	.	8b\	.	.	.	.	.	8gg\	8bb\
.	8a/J	.	8cc/J	.	.	8a\J	.	8cc\J	.	.	.	.	.	8aa\J	8cccn\J
=3	=3	=3	=3	=3	=3	=3	=3	=3	=3	=3	=3	=3	=3	=3	=3
4GG/	8b/L	.	8dd\L	.	2.ryy	2b\	.	2dd\	.	2.ryy	2.ryy	2.ryy	2.ryy	2bb\	2ddd\
.	8a/	.	8cc#X\	.	.	.	.	.	.	.	.	.	.	.	.
4G\	8b/	.	8dd\	.	.	.	.	.	.	.	.	.	.	.	.
.	8g/	.	8b\	.	.	.	.	.	.	.	.	.	.	.	.
4C/	8cc/	.	8ee\	.	.	4cc\	-tus	8ee\L	-tuſ	.	.	.	.	4cccn\	8eee\L
.	8e/J	.	8gg\J	.	.	.	.	8gg\J	.	.	.	.	.	.	8ggg\J
=4	=4	=4	=4	=4	=4	=4	=4	=4	=4	=4	=4	=4	=4	=4	=4
4GG/	2b\	.	2dd\	.	2.ryy	2b\	eſt	2dd\	eſt	2.ryy	2.ryy	2.ryy	2.ryy	2bb\	2ddd\
8G\L	.	.	.	.	.	.	.	.	.	.	.	.	.	.	.
8D\	.	.	.	.	.	.	.	.	.	.	.	.	.	.	.
8BB\	4r	.	4r	.	.	4r	.	4r	.	.	.	.	.	4r	4r
8D\J	.	.	.	.	.	.	.	.	.	.	.	.	.	.	.
=5	=5	=5	=5	=5	=5	=5	=5	=5	=5	=5	=5	=5	=5	=5	=5
4GG/	8b\L	.	8dd\L	.	2.ryy	8b\L	de-	8dd\L	de-	2.ryy	2.ryy	2.ryy	2.ryy	8bb\L	8ddd\L
.	8cc\	.	8ee\	.	.	8cc\J	.	8ee\J	.	.	.	.	.	8ccc\	8eee\
4G\	8b\	.	8dd\	.	.	8b\L	-spi-	8dd\L	-ſpi-	.	.	.	.	8bb\	8ddd\
.	8g\J	.	8b\	.	.	8g\J	.	8b\J	.	.	.	.	.	8gg\	8bb\
4r	8a/L	.	8ccn\	.	.	8a\L	-ri-	8ccn\	-ri-	.	.	.	.	8aa\	8ccc\
.	8d/J	.	8a\J	.	.	8f#\J	-tu	8a\	-tu	.	.	.	.	8dd\J	8aa\J
=6	=6	=6	=6	=6	=6	=6	=6	=6	=6	=6	=6	=6	=6	=6	=6
4GG/	8B/L	.	4g/	.	2.ryy	2.g\	san-	2g\	san-	2.ryy	2.ryy	2.ryy	2.ryy	4b\	8gg\L
.	8d/	.	.	.	.	.	.	.	.	.	.	.	.	.	8gg\
4G\	8B/	.	8g/L	.	.	.	.	.	.	.	.	.	.	8b\L	8ff#\
.	8d/	.	8f#/	.	.	.	.	.	.	.	.	.	.	8a\	8gg\J
4G\	8B/	.	8g/	.	.	.	.	8g\L	.	.	.	.	.	8b\	4bb\
.	8d/J	.	8b/J	.	.	.	.	8b\J	.	.	.	.	.	8dd\J	.
=7	=7	=7	=7	=7	=7	=7	=7	=7	=7	=7	=7	=7	=7	=7	=7
.	.	.	8qb/	.	.	.	.	.	.	.	.	.	.	.	.
4D\	8c/L	.	4a/	.	2.ryy	2f#\	.	4a\	.	2.ryy	2.ryy	2.ryy	2.ryy	4cc\	4aa\
.	8e/	.	.	.	.	.	.	.	.	.	.	.	.	.	.
4D\	8c/	.	8a/L	.	.	.	.	8a\L	.	.	.	.	.	8cc\L	8aa\L
.	8e/	.	8g/	.	.	.	.	8g\	.	.	.	.	.	8b\	8gg\J
4D\	8c/	.	8a/	.	.	4f#\	.	8a\	.	.	.	.	.	8cc\	8aa\L
.	8e/J	.	8b/J	.	.	.	.	8b\J	.	.	.	.	.	8dd\J	8bb\J
=8	=8	=8	=8	=8	=8	=8	=8	=8	=8	=8	=8	=8	=8	=8	=8
.	.	.	.	.	.	.	.	.	.	.	.	.	.	.	8qaa/
4GG/	8B/L	.	2g/	.	2.ryy	2g\	-cto	2g\	-cto	2.ryy	2.ryy	2.ryy	2.ryy	2b\	2gg\
.	8d/	.	.	.	.	.	.	.	.	.	.	.	.	.	.
8G\L	8B/	.	.	.	.	.	.	.	.	.	.	.	.	.	.
8D\	8d/J	.	.	.	.	.	.	.	.	.	.	.	.	.	.
8BB\	4B/	.	4r	.	.	4r	.	4r	.	.	.	.	.	4r	4r
8GG\J	.	.	.	.	.	.	.	.	.	.	.	.	.	.	.
=9	=9	=9	=9	=9	=9	=9	=9	=9	=9	=9	=9	=9	=9	=9	=9
4D\	8A/L	.	4a/	.	2.ryy	2f#\	ex	4a\	ex	2.ryy	2.ryy	2.ryy	2.ryy	0.r	0.r
.	8f#/	.	.	.	.	.	.	.	.	.	.	.	.	.	.
4D\	8A/	.	4dd\	.	.	.	.	4.dd\	Ma-	.	.	.	.	.	.
.	8f#/	.	.	.	.	.	.	.	.	.	.	.	.	.	.
4D\	8A/	.	8dd\L	.	.	8f#\L	Ma-	.	.	.	.	.	.	.	.
.	8f#/J	.	8cc\J	.	.	8a\J	.	8ccn\	.	.	.	.	.	.	.
=10	=10	=10	=10	=10	=10	=10	=10	=10	=10	=10	=10	=10	=10	=10	=10
4GG/	4d/	.	8cc\L	.	2.ryy	8a\L	-ri-	8cc\L	-ri-	2.ryy	2.ryy	2.ryy	2.ryy	.	.
.	.	.	8b\J	.	.	8g\J	.	8b\J	.	.	.	.	.	.	.
4G\	4d/	.	2b\	.	.	2g\	-a	2b\	-a	.	.	.	.	.	.
4G\	4d/	.	.	.	.	.	.	.	.	.	.	.	.	.	.
=11	=11	=11	=11	=11	=11	=11	=11	=11	=11	=11	=11	=11	=11	=11	=11
4E\	4g/	.	4gg\	.	2.ryy	4g\	/Ma-	4gg\	Ma-	2.ryy	2.ryy	2.ryy	2.ryy	.	.
4G\	4b/	.	4.ee\	.	.	4.b\	-ri-	4.ee\	-ri-	.	.	.	.	.	.
4G#X\	4b/	.	.	.	.	.	.	.	.	.	.	.	.	.	.
.	.	.	8dd\	.	.	8b\	-a/	8dd\	-a	.	.	.	.	.	.
=12	=12	=12	=12	=12	=12	=12	=12	=12	=12	=12	=12	=12	=12	=12	=12
.	.	.	8qdd/	.	.	.	.	.	.	.	.	.	.	.	.
4A\	4e/	.	4cc#X\	.	2.ryy	8b\	Vir-	8dd\	Vir-	2.ryy	2.ryy	2.ryy	2.ryy	.	.
.	.	.	.	.	.	8a\	-gi-	8cc#X\	-gi-	.	.	.	.	.	.
8A'\L	2e/	.	2cc#\	.	.	2a\	-ne	2cc#\	-ne	.	.	.	.	.	.
8Gn'\	.	.	.	.	.	.	.	.	.	.	.	.	.	.	.
8F#'\	.	.	.	.	.	.	.	.	.	.	.	.	.	.	.
8E'\J	.	.	.	.	.	.	.	.	.	.	.	.	.	.	.
=13	=13	=13	=13	=13	=13	=13	=13	=13	=13	=13	=13	=13	=13	=13	=13
!	!	!	!LO:TX:a:t=P:problem=mixed beam	!	!	!	!	!	!	!	!	!	!	!	!
4D\	2.A/	.	8dd\L	.	2.ryy	4f#\	et	4dd\	et	2.ryy	2.ryy	2.ryy	2.ryy	4r	8r
.	.	.	8d/	.	.	.	.	.	.	.	.	.	.	.	8dd\L
4DD/	.	.	8f#/	.	.	4f#\	ho-	4dd\	ho-	.	.	.	.	4dd\	8ff#\
.	.	.	8d/	.	.	.	.	.	.	.	.	.	.	.	8dd\
4r	.	.	8g/	.	.	4g\	-mo	4ee\	-mo	.	.	.	.	4ee\	8gg\
.	.	.	8e/J	.	.	.	.	.	.	.	.	.	.	.	8ee\J
=14	=14	=14	=14	=14	=14	=14	=14	=14	=14	=14	=14	=14	=14	=14	=14
4D\	2A/	.	8a/L	.	2.ryy	8a\L	ho-	8ff#\L	fa-	2.ryy	2.ryy	2.ryy	2.ryy	8ff#\L	8aa\L
.	.	.	8f#/	.	.	8f#\	.	8dd\	.	.	.	.	.	8dd\	8ff#\
4F#\	.	.	8a/	.	.	8a\	.	8ff#\	.	.	.	.	.	8ff#\	8aa\
.	.	.	8f#/	.	.	8f#\J	.	8dd\	.	.	.	.	.	8dd\	8ff#\
4A\	4A/	.	8g/	.	.	8g\L	-mo	8ee\	-ctuſ	.	.	.	.	8ee\	8gg\
.	.	.	8e/J	.	.	8e\J	.	8cc#X\J	.	.	.	.	.	8cc#X\J	8ee\J
=15	=15	=15	=15	=15	=15	=15	=15	=15	=15	=15	=15	=15	=15	=15	=15
4d\	2.A/	.	8f#/L	.	2.ryy	4f#\	et	4dd\	et	2.ryy	2.ryy	2.ryy	2.ryy	4dd\	8ff#\L
.	.	.	8d/	.	.	.	.	.	.	.	.	.	.	.	8dd\
4D\	.	.	8f#/	.	.	4f#\	ho-	4dd\	ho-	.	.	.	.	4dd\	8ff#\
.	.	.	8d/	.	.	.	.	.	.	.	.	.	.	.	8dd\J
4r	.	.	8g/	.	.	4g\	-mo	4ee\	-mo	.	.	.	.	4ee\	8gg\L
.	.	.	8e/J	.	.	.	.	.	.	.	.	.	.	.	8ee\J
=16	=16	=16	=16	=16	=16	=16	=16	=16	=16	=16	=16	=16	=16	=16	=16
4D\	2A/	.	8a/L	.	2.ryy	8a\L	fa-	8ff#\L	fa-	2.ryy	2.ryy	2.ryy	2.ryy	8ff#\L	8aa\L
.	.	.	8f#/	.	.	8f#\	.	8dd\	.	.	.	.	.	8dd\	8ff#\
4F#\	.	.	8a/	.	.	8a\	.	8ff#\	.	.	.	.	.	8ff#\	8aa\
.	.	.	8f#/	.	.	8f#\J	.	8dd\	.	.	.	.	.	8dd\	8ff#\
4A\	4A/	.	8g/	.	.	8g\L	-ctus	8ee\	-ctuſ	.	.	.	.	8ee\	8gg\
.	.	.	8e/J	.	.	8e\J	.	8cc#X\J	.	.	.	.	.	8cc#X\J	8ee\J
=17	=17	=17	=17	=17	=17	=17	=17	=17	=17	=17	=17	=17	=17	=17	=17
4d\	4A/	.	8f#/L	.	2.ryy	4f#\	ho-	(4dd\	ho-	2.ryy	2.ryy	2.ryy	2.ryy	4dd\	8ff#\L
.	.	.	8d/	.	.	.	.	.	.	.	.	.	.	.	8dd\
4r	4A/	.	8g/	.	.	4g\	.	4ee\	.	.	.	.	.	4ee\	8gg\
.	.	.	8e/	.	.	.	.	.	.	.	.	.	.	.	8ee\
4D\	8f#/L	.	8a/	.	.	4a\	-mo	4ff#\)	-mo	.	.	.	.	4ff#\	8aa\
.	8d/J	.	8f#/J	.	.	.	.	.	.	.	.	.	.	.	8ff#\J
=18	=18	=18	=18	=18	=18	=18	=18	=18	=18	=18	=18	=18	=18	=18	=18
4G\	4d/	.	8b/L	.	2.ryy	8b\L	fa-	8gg\L	fa-	2.ryy	2.ryy	2.ryy	2.ryy	8gg\L	8bb\L
.	.	.	8g/J	.	.	8g\J	.	8ee\J	.	.	.	.	.	8ee\J	8gg\J
4A\	4d/	.	4f#/	.	.	4f#\	.	4dd\	.	.	.	.	.	4dd\	4ff#\
4AA/	4c#X/	.	4eT/	.	.	4e\	-ctus	4cc#X\	-ctuſ	.	.	.	.	4cc#X\	4ee\
=19	=19	=19	=19	=19	=19	=19	=19	=19	=19	=19	=19	=19	=19	=19	=19
4D\	2d/	.	2d/	.	2.ryy	2f#\	est	2dd\	eſt	2.ryy	2.ryy	2.ryy	2.ryy	2dd\	2dd\
8d\L	.	.	.	.	.	.	.	.	.	.	.	.	.	.	.
8A\	.	.	.	.	.	.	.	.	.	.	.	.	.	.	.
8F#\	4r	.	4r	.	.	4r	.	4r	.	.	.	.	.	4r	4r
8D\J	.	.	.	.	.	.	.	.	.	.	.	.	.	.	.
=20	=20	=20	=20	=20	=20	=20	=20	=20	=20	=20	=20	=20	=20	=20	=20
4E\	8b/L	.	2dd\	.	2.ryy	2b\	Cru-	2dd\	Cru-	2.ryy	2.ryy	2.ryy	2.ryy	0.r	0.r
.	8g#X/	.	.	.	.	.	.	.	.	.	.	.	.	.	.
4E\	8b/	.	.	.	.	.	.	.	.	.	.	.	.	.	.
.	8g#/	.	.	.	.	.	.	.	.	.	.	.	.	.	.
4E\	8e/	.	4b\	.	.	4g#X\	-ci-	4b\	-ci-	.	.	.	.	.	.
.	8g#/J	.	.	.	.	.	.	.	.	.	.	.	.	.	.
=21	=21	=21	=21	=21	=21	=21	=21	=21	=21	=21	=21	=21	=21	=21	=21
4AA/	8b/L	.	8dd\L	.	2.ryy	8b\L	-fi-	8dd\L	-fi-	2.ryy	2.ryy	2.ryy	2.ryy	.	.
.	8a/J	.	8cc\J	.	.	8a\J	.	8cc\J	.	.	.	.	.	.	.
4A\	4a/	.	4cc\	.	.	4a\	-xus	4cc\	-xus	.	.	.	.	.	.
4AA/	4r	.	4r	.	.	4r	.	4r	.	.	.	.	.	.	.
=22	=22	=22	=22	=22	=22	=22	=22	=22	=22	=22	=22	=22	=22	=22	=22
*	*	*	*	*	*	*	*	*	*ij	*	*	*	*	*	*
4D\	8a/L	.	2cc\	.	2.ryy	2a\	Cru-	2cc\	Cru-	2.ryy	2.ryy	2.ryy	2.ryy	.	.
.	8f#/	.	.	.	.	.	.	.	.	.	.	.	.	.	.
4D\	8a/	.	.	.	.	.	.	.	.	.	.	.	.	.	.
.	8f#/	.	.	.	.	.	.	.	.	.	.	.	.	.	.
4D\	8d/	.	4a/	.	.	4f#\	-ci-	4a\	-ci-	.	.	.	.	.	.
.	8f#/J	.	.	.	.	.	.	.	.	.	.	.	.	.	.
=23	=23	=23	=23	=23	=23	=23	=23	=23	=23	=23	=23	=23	=23	=23	=23
4G\	8a/L	.	8cc\L	.	2.ryy	8a\L	-fi-	8cc\L	-fi-	2.ryy	2.ryy	2.ryy	2.ryy	.	.
.	8g/J	.	8b\J	.	.	8g\J	.	8b\J	.	.	.	.	.	.	.
4GG/	4g/	.	4b\	.	.	4g\	-xus	4b\	-xus	.	.	.	.	.	.
*	*	*	*	*	*	*	*	*	*Xij	*	*	*	*	*	*
8BB/L	4r	.	4r	.	.	4r	.	4r	.	.	.	.	.	.	.
8D/J	.	.	.	.	.	.	.	.	.	.	.	.	.	.	.
=24	=24	=24	=24	=24	=24	=24	=24	=24	=24	=24	=24	=24	=24	=24	=24
4G\	8b/L	.	8dd\L	.	2.ryy	8b\L	e-	8dd\L	e-	2.ryy	2.ryy	2.ryy	2.ryy	8bb\L	8ddd\L
.	8cc/	.	8ee\	.	.	8cc\	.	8ee\J	.	.	.	.	.	8ccc\	8eee\
4GG/	8b/	.	8dd\	.	.	8b\	.	8dd\L	.	.	.	.	.	8bb\	8ddd\
.	8g/	.	8b\	.	.	8g\J	.	8b\J	.	.	.	.	.	8gg\	8bb\
4D\	8a/	.	8cc\	.	.	8a\L	-ti-	8ccn\L	-ti-	.	.	.	.	8aa\	8ccc\
.	8d/J	.	8a\J	.	.	8f#\J	.	8a\J	.	.	.	.	.	8ff#\J	8aa\J
=25	=25	=25	=25	=25	=25	=25	=25	=25	=25	=25	=25	=25	=25	=25	=25
4G\	8B/L	.	8g/L	.	2.ryy	4g\	.	8g\L	-am	2.ryy	2.ryy	2.ryy	2.ryy	4gg\	8gg\L
.	8d/	.	8f#/	.	.	.	.	8f#\	.	.	.	.	.	.	8ff#\
4GG/	8B/	.	8g/	.	.	8g\L	-am	8g\	.	.	.	.	.	8gg\L	8gg\
.	8d/	.	8a/	.	.	8f#\J	.	8a\J	.	.	.	.	.	8ff#\	8aa\
4r	8g/	.	8b/	.	.	8g\L	pro	8b\L	pro	.	.	.	.	8gg\	8bb\
.	8a/J	.	8cc/J	.	.	8a\J	.	8cc\J	.	.	.	.	.	8aa\J	8ccc\J
=26	=26	=26	=26	=26	=26	=26	=26	=26	=26	=26	=26	=26	=26	=26	=26
4GG/	8b/L	.	8dd\L	.	2.ryy	2b\	no-	2dd\	no-	2.ryy	2.ryy	2.ryy	2.ryy	2bb\	2ddd\
.	8a/	.	8cc#X\	.	.	.	.	.	.	.	.	.	.	.	.
4G\	8b/	.	8dd\	.	.	.	.	.	.	.	.	.	.	.	.
.	8g/	.	8b\	.	.	.	.	.	.	.	.	.	.	.	.
4C/	8cc/	.	8ee\	.	.	4cc\	.	8ee\L	.	.	.	.	.	4ccc\	8eee\L
.	8e/J	.	8gg\J	.	.	.	.	8gg\J	.	.	.	.	.	.	8ggg\J
=27	=27	=27	=27	=27	=27	=27	=27	=27	=27	=27	=27	=27	=27	=27	=27
.	8qcc/	.	.	.	.	.	.	.	.	.	.	.	.	.	.
4GG/	2b\	.	2dd\	.	2.ryy	2b\	-biſ	2dd\	-bis	2.ryy	2.ryy	2.ryy	2.ryy	2bb\	2ddd\
8G\L	.	.	.	.	.	.	.	.	.	.	.	.	.	.	.
8D\	.	.	.	.	.	.	.	.	.	.	.	.	.	.	.
8BB\	4r	.	4r	.	.	4r	.	4r	.	.	.	.	.	4r	4r
8D\J	.	.	.	.	.	.	.	.	.	.	.	.	.	.	.
=28	=28	=28	=28	=28	=28	=28	=28	=28	=28	=28	=28	=28	=28	=28	=28
4GG/	8b\L	.	8dd\L	.	2.ryy	8b\L	Sub	8dd\L	sub	2.ryy	2.ryy	2.ryy	2.ryy	8bb\L	8ddd\L
.	8cc\	.	8ee\	.	.	8cc\J	.	8ee\J	.	.	.	.	.	8ccc\	8eee\
4G\	8b\	.	8dd\	.	.	8b\L	Pon-	8dd\L	Pon-	.	.	.	.	8bb\	8ddd\
.	8g\J	.	8b\	.	.	8g\J	.	8b\J	.	.	.	.	.	8gg\	8bb\
4r	8a/L	.	8cc\	.	.	8a\L	-ti-	8cc\L	-ti-	.	.	.	.	8aa\	8ccc\
.	8d/J	.	8a\J	.	.	8f#\J	.	8a\J	.	.	.	.	.	8dd\J	8aa\J
=29	=29	=29	=29	=29	=29	=29	=29	=29	=29	=29	=29	=29	=29	=29	=29
4GG/	8B/L	.	4g/	.	2.ryy	2g\	-o	2g\	-o	2.ryy	2.ryy	2.ryy	2.ryy	2b\	4gg\
.	8d/	.	.	.	.	.	.	.	.	.	.	.	.	.	.
4G\	8B/	.	8g/L	.	.	.	.	.	.	.	.	.	.	.	8gg\L
.	8d/	.	8f#/	.	.	.	.	.	.	.	.	.	.	.	8ff#\
4G\	8B/	.	8g/	.	.	4g\	Pi-	8g\L	Pi-	.	.	.	.	4b\	8gg\
.	8d/J	.	8b/J	.	.	.	.	8b\J	.	.	.	.	.	.	8bb\J
=30	=30	=30	=30	=30	=30	=30	=30	=30	=30	=30	=30	=30	=30	=30	=30
*	*tremolo	*	*	*	*	*	*	*	*	*	*	*	*	*	*
4D\	8c/L	.	4a/	.	2.ryy	2.f#\	-la-	4a\	-la-	2.ryy	2.ryy	2.ryy	2.ryy	2dd\	4aa\
.	8d/	.	.	.	.	.	.	.	.	.	.	.	.	.	.
4D\	8c/	.	8a/L	.	.	.	.	8a\L	.	.	.	.	.	.	8aa\L
.	8d/	.	8g/	.	.	.	.	8g\	.	.	.	.	.	.	8gg\
4D\	8c/	.	8a/	.	.	.	.	8a\	.	.	.	.	.	4dd\	8aa\
.	8d/J	.	8b/J	.	.	.	.	8b\J	.	.	.	.	.	.	8bb\J
=31	=31	=31	=31	=31	=31	=31	=31	=31	=31	=31	=31	=31	=31	=31	=31
4GG/	8B/L	.	2g/	.	2.ryy	2g\	-to	2g\	-to	2.ryy	2.ryy	2.ryy	2.ryy	4b\	2gg\
.	8d/	.	.	.	.	.	.	.	.	.	.	.	.	.	.
8G\L	8B/	.	.	.	.	.	.	.	.	.	.	.	.	4r	.
8D\	8d/J	.	.	.	.	.	.	.	.	.	.	.	.	.	.
*	*Xtremolo	*	*	*	*	*	*	*	*	*	*	*	*	*	*
8BB\	4B/	.	4r	.	.	4r	.	4r	.	.	.	.	.	4r	4r
8GG\J	.	.	.	.	.	.	.	.	.	.	.	.	.	.	.
=32	=32	=32	=32	=32	=32	=32	=32	=32	=32	=32	=32	=32	=32	=32	=32
!	!LO:TX:a:t=P:problem=znak początku repetycji	!	!	!	!	!	!	!	!	!	!	!	!	!	!
4D\	4d 4G/	.	4f#/	.	2.ryy	2d\	paſ-	2f#/	paſ-	2.ryy	2.ryy	2.ryy	2.ryy	2.dd\	4ff#\
4D\	4d 4G/	.	8f#/L	.	.	.	.	.	.	.	.	.	.	.	8ff#\L
.	.	.	8e/	.	.	.	.	.	.	.	.	.	.	.	8ee\
4D\	4d 4G/	.	8f#/	.	.	4d\	-sus	4f#/	-sus	.	.	.	.	.	8ff#\
.	.	.	8d/J	.	.	.	.	.	.	.	.	.	.	.	8dd\J
=33	=33	=33	=33	=33	=33	=33	=33	=33	=33	=33	=33	=33	=33	=33	=33
*	*^	*	*	*	*	*	*	*	*	*	*	*	*	*	*
4G\	4d/	2.B/	.	4g/	.	2.ryy	2d\	et	2g/	et	2.ryy	2.ryy	2.ryy	2.ryy	2.dd\	4gg\
4G\	4d/	.	.	4.b\	.	.	.	.	.	.	.	.	.	.	.	4.bb\
4G\	4d/	.	.	.	.	.	4d\	Se-	4g/	se-	.	.	.	.	.	.
.	.	.	.	8dd\	.	.	.	.	.	.	.	.	.	.	.	8ddd\
=34	=34	=34	=34	=34	=34	=34	=34	=34	=34	=34	=34	=34	=34	=34	=34	=34
.	.	.	.	.	.	.	.	.	.	.	.	.	.	.	.	8qddd/
4D\	4d/	2.A/	.	4cc\	.	2.ryy	2d\	-pul-	2f#/	-pul-	2.ryy	2.ryy	2.ryy	2.ryy	2.dd\	4ccc\
4D\	4d/	.	.	4a/	.	.	.	.	.	.	.	.	.	.	.	4aa\
4D\	4d/	.	.	8f#/L	.	.	4d\	-tus	4f#/	-tuſ	.	.	.	.	.	8ff#\L
.	.	.	.	8d/J	.	.	.	.	.	.	.	.	.	.	.	8dd\J
=35	=35	=35	=35	=35	=35	=35	=35	=35	=35	=35	=35	=35	=35	=35	=35	=35
4G\	4d/	2.B/	.	8g/L	.	2.ryy	2d\	eſt	4g\	est	2.ryy	2.ryy	2.ryy	2.ryy	8b\L	8gg\L
.	.	.	.	8b/J	.	.	.	.	.	.	.	.	.	.	8dd\J	8bb\J
4G\	4d/	.	.	2g/	.	.	.	.	4r	.	.	.	.	.	2b\	2gg\
!	!LO:TX:a:t=P:problem=znak końca repetycji	!	!	!	!	!	!	!	!	!	!	!	!	!	!	!
4G\	4d/	.	.	.	.	.	4r	.	4r	.	.	.	.	.	.	.
*	*v	*v	*	*	*	*	*	*	*	*	*	*	*	*	*	*
=36	=36	=36	=36	=36	=36	=36	=36	=36	=36	=36	=36	=36	=36	=36	=36
*	*	*	*	*	*	*	*	*	*	*	*	*	*	*	*
.	.	.	8qg/	.	.	.	.	.	.	.	.	.	.	.	8qgg/
*	*	*	*	*	*	*	*	*	*ij	*	*	*	*	*	*
4D\	4dyy 4G/yy	.	4f#/	.	2.ryy	2d\	paſ-	2f#/	paſ-	2.ryy	2.ryy	2.ryy	2.ryy	2.dd\	4ff#\
4D\	4dyy 4G/yy	.	8f#/L	.	.	.	.	.	.	.	.	.	.	.	8ff#\L
.	.	.	8e/	.	.	.	.	.	.	.	.	.	.	.	8ee\
4D\	4dyy 4G/yy	.	8f#/	.	.	4d\	-sus	4f#/	-sus	.	.	.	.	.	8ff#\
.	.	.	8d/J	.	.	.	.	.	.	.	.	.	.	.	8dd\J
=37	=37	=37	=37	=37	=37	=37	=37	=37	=37	=37	=37	=37	=37	=37	=37
*	*^	*	*	*	*	*	*	*	*	*	*	*	*	*	*
4G\	4d/yy	2.B/yy	.	4g/	.	2.ryy	2d\	et	2g\	et	2.ryy	2.ryy	2.ryy	2.ryy	2.dd\	4gg\
4G\	4d/yy	.	.	4.b\	.	.	.	.	.	.	.	.	.	.	.	4.bb\
4G\	4d/yy	.	.	.	.	.	4d\	se-	4g\	se-	.	.	.	.	.	.
.	.	.	.	8dd\	.	.	.	.	.	.	.	.	.	.	.	8ddd\
=38	=38	=38	=38	=38	=38	=38	=38	=38	=38	=38	=38	=38	=38	=38	=38	=38
.	.	.	.	8qdd/	.	.	.	.	.	.	.	.	.	.	.	8qddd/
4D\	4d/yy	2.A/yy	.	4cc\	.	2.ryy	2d\	-pul-	2f#/	-pul-	2.ryy	2.ryy	2.ryy	2.ryy	2.dd\	4ccc\
4D\	4d/yy	.	.	4a/	.	.	.	.	.	.	.	.	.	.	.	4aa\
4D\	4d/yy	.	.	8f#/L	.	.	4d\	-tus	4f#/	-tuſ	.	.	.	.	.	8ff#\L
.	.	.	.	8d/J	.	.	.	.	.	.	.	.	.	.	.	8dd\J
=39	=39	=39	=39	=39	=39	=39	=39	=39	=39	=39	=39	=39	=39	=39	=39	=39
4G\	4d/yy	2.B/yy	.	2g/	.	2.ryy	2d\	eſt	2g/	eſt	2.ryy	2.ryy	2.ryy	2.ryy	2b\	2gg\
4GG/	4d/yy	.	.	.	.	.	.	.	.	.	.	.	.	.	.	.
*	*	*	*	*	*	*	*	*	*	*Xij	*	*	*	*	*	*
4D\	4d/yy	.	.	8f#/L	.	.	4d\	Se-	4f#/	se-	.	.	.	.	4dd\	8ff#\L
.	.	.	.	8d/J	.	.	.	.	.	.	.	.	.	.	.	8dd\J
*	*v	*v	*	*	*	*	*	*	*	*	*	*	*	*	*	*
=40	=40	=40	=40	=40	=40	=40	=40	=40	=40	=40	=40	=40	=40	=40	=40
4G\	4d 4G/	.	4g/	.	2.ryy	2d\	-pul-	2g/	-pul-	2.ryy	2.ryy	2.ryy	2.ryy	2b\	2gg\
4GG/	4d 4G/	.	4g/	.	.	.	.	.	.	.	.	.	.	.	.
4D\	4d 4G/	.	8f#/L	.	.	4d\	-tus	4f#/	-tus	.	.	.	.	4dd\	8ff#\L
.	.	.	8d/J	.	.	.	.	.	.	.	.	.	.	.	8dd\J
=41	=41	=41	=41	=41	=41	=41	=41	=41	=41	=41	=41	=41	=41	=41	=41
4GG/	4d 4G/	.	4g/	.	2.ryy	2B/	eſt	4g\	eſt	2.ryy	2.ryy	2.ryy	2.ryy	4b\	4gg\
4G\	4d 4G/	.	4g/	.	.	.	.	4r	.	.	.	.	.	4r	4r
4r	4r	.	4r	.	.	4r	.	4r	.	.	.	.	.	4r	4r
==	==	==	==	==	==	==	==	==	==	==	==	==	==	==	==
*-	*-	*-	*-	*-	*-	*-	*-	*-	*-	*-	*-	*-	*-	*-	*-
!!!system-decoration: [(s1,s2,s3,s4)][(s5,s6)][(s7,s8,s9)][(s10,s11)][(s12)]
!!!RDF**kern: > = above
!!!RDF**kern: < = below
!!!RDF**dynam: > = "Dim.", fontstyle= "bold-italic"
!!!RDF**dynam: < = "Cres.", fontstyle= "bold-italic"
!!!RDF**kern: | = vertical stroke
!!!RDF**kern: N = linked
!!!RDF**kern: i = editorial accidental
!!!RDF**kern: l = terminal long
!!!ENC: Berenika Jozajtis
!!!END: 2020-09-27
!!!EED: Wojciech Jakubiak-Danek
!!!EEV: 2022-02-20
!!!YEC: Copyright 2022 Narodowy Instytut Fryderyka Chopina (https://polishscores.org)
!!!YEM: License CC-BY-4.0 (https://creativecommons.org/licenses/by/4.0)
